X:9
T:Beggar Girl,The. CJF.009
R:Air
S:C.J.Fox MS, 1829/33, Beverley,E.Yorks.
B:Kidson Coll.Mitchell Lib.M1805
O:England
A:East Yorkshire
Z:vmp.P J Headford 2000 & 2008
M:6/8
L:1/8
Q:3/8=60
K:C
” Andante”g>fe g>fe|\
dcd e>fg|g>fe g>fe|dc{e}dc2g|!
g>fe g>fe|dcd e(c/d/e/f/)|g>fe g>fe|dc{e}dc2z|!
Gce Gdf|Gfe (dc)d|(Gc)_B Afe|(ed)cg2Hz|!
g>fe g>fe|dcd efg|gfe abc’|!
e>fdc2e/f/|g/e’/d’/c’/b/a/ (g/c’/b/a/g/f/)|e>fdc2|]

